X:902
T:Reel 902
M:4/4
K:Gmaj
L:1/8
Bc|dGBG AFDF|DG (3GFG AFce|dG (3GFG Acde|=fdcA BGG:|f|dggf d2dc|BcBd cBcA|Bd (3ddd dBcB|BdcA BGGA|B2Bd  (3ddd BG|AFDE FGAc|gfge fefd|cAFA G2|
